Avidclan_Website/assets/images/icons/cloud-messaging-ic.svg

<?xml version="1.0" encoding="utf-8"?>
<!-- Generator: Adobe Illustrator 24.1.1, SVG Export Plug-In . SVG Version: 6.00 Build 0)  -->
<svg version="1.1" id="Layer_1" xmlns="http://www.w3.org/2000/svg" xmlns:xlink="http://www.w3.org/1999/xlink" x="0px" y="0px"
	 viewBox="0 0 394.7 321.6" style="enable-background:new 0 0 394.7 321.6;" xml:space="preserve">
<style type="text/css">
	.st0{fill:#007AFB;}
</style>
<path class="st0" d="M323.6,83.9C317.2,36.3,276.4,0,227.5,0c-39.2,0-74.7,24.1-89.6,59.8c-9.7-5.3-20.5-8-31.7-8
	c-37,0-67.1,30.1-67.1,67.1c0,0.7,0,1.4,0,2.1C16.4,126.7,0,147.2,0,171.5c0,28.8,23.4,52.1,52.1,52.1h34.8v77.5
	c0,5.6,2.3,10.7,5.9,14.4c0,0,0,0.1,0.1,0.1c0,0,0,0,0,0c3.7,3.7,8.9,6,14.5,6h193.6c11.3,0,20.5-9.2,20.5-20.5v-77.5h3.2
	c38.5,0,69.9-31.3,69.9-69.9C394.7,114.9,362.7,82.9,323.6,83.9L323.6,83.9z M102.7,178.3l61.4,58.5l-61.4,58.5V178.3z M175.5,247.7
	l14.5,13.9c4,3.8,9.1,5.7,14.2,5.7c5.1,0,10.2-1.9,14.1-5.7l14.6-13.9l61,58.2H114.5L175.5,247.7z M244.4,236.8l61.4-58.5v117.1
	L244.4,236.8z M207.5,250.2c-1.8,1.7-4.7,1.7-6.5,0l-86.5-82.4H294L207.5,250.2z M324.8,207.9h-3.2v-35.4c0-11.3-9.2-20.5-20.5-20.5
	H107.4c-11.3,0-20.5,9.2-20.5,20.5v35.4H52.1c-20,0-36.4-16.3-36.4-36.4c0-18.8,14.1-34.3,32.7-36.2c2.1-0.2,4.1-1.3,5.4-3
	c1.3-1.7,1.9-3.9,1.6-6c-0.4-2.9-0.6-5.2-0.6-7.5c0-28.3,23-51.3,51.3-51.3c11.3,0,22,3.6,31,10.5c2.1,1.6,4.8,2,7.2,1.2
	c2.5-0.8,4.4-2.8,5.1-5.3c10.1-34.3,42.1-58.3,77.9-58.3c43.2,0,78.8,33.8,81,77.1c0.1,2.2,1.1,4.3,2.8,5.7c1.7,1.4,3.9,2,6.1,1.8
	c2.8-0.4,5.1-0.6,7.3-0.6c29.8,0,54.1,24.3,54.1,54.1C378.9,183.6,354.6,207.9,324.8,207.9L324.8,207.9z"/>
</svg>

<svg width="395" height="322" viewBox="0 0 395 322" fill="none" xmlns="http://www.w3.org/2000/svg">
<g clip-path="url(#clip0_493_336)">
<path d="M323.6 83.9C317.2 36.3 276.4 0 227.5 0C188.3 0 152.8 24.1 137.9 59.8C128.2 54.5 117.4 51.8 106.2 51.8C69.2 51.8 39.1 81.9 39.1 118.9C39.1 119.6 39.1 120.3 39.1 121C16.4 126.7 0 147.2 0 171.5C0 200.3 23.4 223.6 52.1 223.6H86.9V301.1C86.9 306.7 89.2 311.8 92.8 315.5C92.8 315.5 92.8 315.6 92.9 315.6C96.6 319.3 101.8 321.6 107.4 321.6H301C312.3 321.6 321.5 312.4 321.5 301.1V223.6H324.7C363.2 223.6 394.6 192.3 394.6 153.7C394.7 114.9 362.7 82.9 323.6 83.9ZM102.7 178.3L164.1 236.8L102.7 295.3V178.3ZM175.5 247.7L190 261.6C194 265.4 199.1 267.3 204.2 267.3C209.3 267.3 214.4 265.4 218.3 261.6L232.9 247.7L293.9 305.9H114.5L175.5 247.7ZM244.4 236.8L305.8 178.3V295.4L244.4 236.8ZM207.5 250.2C205.7 251.9 202.8 251.9 201 250.2L114.5 167.8H294L207.5 250.2ZM324.8 207.9H321.6V172.5C321.6 161.2 312.4 152 301.1 152H107.4C96.1 152 86.9 161.2 86.9 172.5V207.9H52.1C32.1 207.9 15.7 191.6 15.7 171.5C15.7 152.7 29.8 137.2 48.4 135.3C50.5 135.1 52.5 134 53.8 132.3C55.1 130.6 55.7 128.4 55.4 126.3C55 123.4 54.8 121.1 54.8 118.8C54.8 90.5 77.8 67.5 106.1 67.5C117.4 67.5 128.1 71.1 137.1 78C139.2 79.6 141.9 80 144.3 79.2C146.8 78.4 148.7 76.4 149.4 73.9C159.5 39.6 191.5 15.6 227.3 15.6C270.5 15.6 306.1 49.4 308.3 92.7C308.4 94.9 309.4 97 311.1 98.4C312.8 99.8 315 100.4 317.2 100.2C320 99.8 322.3 99.6 324.5 99.6C354.3 99.6 378.6 123.9 378.6 153.7C378.9 183.6 354.6 207.9 324.8 207.9Z" fill="#0E53BE"/>
</g>
<defs>
<clipPath id="clip0_493_336">
<rect width="394.7" height="321.6" fill="white"/>
</clipPath>
</defs>
</svg>
